X:156
T: Was soll ich in der Fremde tun,
N: D0264
O: Europa, Mitteleuropa, Deutschland, Westfalen, Muenster
N: Inzipit = Transposition zum Lied
R: Heimat - Lied
M: 4/4
L: 1/16
K: F
C4 | F6E2F4G4 | A6G2F4
A2A2 | G4c4e6d2 | c8z4
A2A2 | G6A2B4d4 | d4c4A4
c2c2 | c4B4G4d3d | d4c4A4
A2A2 | G6A2B4d4 | d4c4A4
c2f2 | e6d2c4B4 | A8z4

